workflow-templates/fixup.svg

<svg xmlns="http://www.w3.org/2000/svg" width="24" height="24"><path d="M10 3h4v11h-4V3m0 18v-4h4v4h-4z" fill="#0082c9"/></svg>

<?xml version="1.0" encoding="UTF-8"?><!DOCTYPE svg PUBLIC "-//W3C//DTD SVG 1.1//EN" "http://www.w3.org/Graphics/SVG/1.1/DTD/svg11.dtd"><svg xmlns="http://www.w3.org/2000/svg" xmlns:xlink="http://www.w3.org/1999/xlink" version="1.1" width="24" height="24" viewBox="0 0 24 24"><path d="M10 3H14V14H10V3M10 21V17H14V21H10Z" /></svg>
